Simply-Cyan-Circles/scalable/notifications/notification-display-brightness-off.svg

<svg xmlns="http://www.w3.org/2000/svg" width="48" height="48" viewBox="0 0 12.7 12.7"><path d="M6.18 1.32c-.09 0-.16.08-.16.17v1c0 .1.07.17.16.17h.34c.09 0 .16-.07.16-.16V1.49c0-.1-.07-.17-.16-.17h-.34zm-3.15 1.3a.17.17 0 0 0-.12.06l-.23.23a.17.17 0 0 0 0 .24l.7.71a.17.17 0 0 0 .24 0l.24-.24a.17.17 0 0 0 0-.23l-.7-.71a.16.16 0 0 0-.13-.05zm6.64 0a.16.16 0 0 0-.12.06l-.71.7a.17.17 0 0 0 0 .24l.24.24a.17.17 0 0 0 .23 0l.71-.7a.17.17 0 0 0 0-.25l-.23-.23a.17.17 0 0 0-.12-.05zM6.35 4A2.35 2.35 0 0 0 4 6.35 2.35 2.35 0 0 0 6.35 8.7 2.35 2.35 0 0 0 8.7 6.35 2.35 2.35 0 0 0 6.35 4zM1.49 6.02c-.1 0-.17.07-.17.16v.34c0 .09.08.16.17.16h1c.1 0 .17-.07.17-.16v-.34c0-.09-.07-.16-.16-.16H1.49zm8.71 0c-.09 0-.16.07-.16.16v.34c0 .09.07.16.16.16h1.01c.1 0 .17-.07.17-.16v-.34c0-.09-.08-.16-.17-.16h-1zM3.5 8.79a.17.17 0 0 0-.11.05l-.71.7a.17.17 0 0 0 0 .25l.23.23a.17.17 0 0 0 .24 0l.71-.7a.17.17 0 0 0 0-.24l-.24-.24a.17.17 0 0 0-.11-.05zm5.7 0a.17.17 0 0 0-.12.05l-.24.24a.17.17 0 0 0 0 .23l.71.71a.17.17 0 0 0 .24 0l.23-.23a.17.17 0 0 0 0-.24l-.7-.71a.17.17 0 0 0-.13-.05zm-3.02 1.25c-.09 0-.16.07-.16.16v1.01c0 .1.07.17.16.17h.34c.09 0 .16-.08.16-.17v-1c0-.1-.07-.17-.16-.17h-.34z" fill="#fd5" fill-opacity=".3"/></svg>

<?xml version="1.0" encoding="UTF-8" standalone="no"?>
<svg
   xmlns:dc="http://purl.org/dc/elements/1.1/"
   xmlns:cc="http://creativecommons.org/ns#"
   xmlns:rdf="http://www.w3.org/1999/02/22-rdf-syntax-ns#"
   xmlns:svg="http://www.w3.org/2000/svg"
   xmlns="http://www.w3.org/2000/svg"
   xmlns:sodipodi="http://sodipodi.sourceforge.net/DTD/sodipodi-0.dtd"
   xmlns:inkscape="http://www.inkscape.org/namespaces/inkscape"
   width="48"
   height="48"
   viewBox="0 0 12.7 12.7"
   version="1.1"
   id="svg4"
   sodipodi:docname="notification-display-brightness-off.svg"
   inkscape:version="0.92.4 (5da689c313, 2019-01-14)">
  <metadata
     id="metadata10">
    <rdf:RDF>
      <cc:Work
         rdf:about="">
        <dc:format>image/svg+xml</dc:format>
        <dc:type
           rdf:resource="http://purl.org/dc/dcmitype/StillImage" />
        <dc:title></dc:title>
      </cc:Work>
    </rdf:RDF>
  </metadata>
  <defs
     id="defs8" />
  <sodipodi:namedview
     pagecolor="#ffffff"
     bordercolor="#666666"
     borderopacity="1"
     objecttolerance="10"
     gridtolerance="10"
     guidetolerance="10"
     inkscape:pageopacity="0"
     inkscape:pageshadow="2"
     inkscape:window-width="1087"
     inkscape:window-height="480"
     id="namedview6"
     showgrid="false"
     inkscape:zoom="4.9166667"
     inkscape:cx="2.1355932"
     inkscape:cy="24"
     inkscape:window-x="0"
     inkscape:window-y="25"
     inkscape:window-maximized="0"
     inkscape:current-layer="svg4" />
  <path
     d="M 6.18,1.32 C 6.09,1.32 6.02,1.4 6.02,1.49 v 1 c 0,0.1 0.07,0.17 0.16,0.17 H 6.52 C 6.61,2.66 6.68,2.59 6.68,2.5 V 1.49 C 6.68,1.39 6.61,1.32 6.52,1.32 Z M 3.03,2.62 A 0.17,0.17 0 0 0 2.91,2.68 L 2.68,2.91 a 0.17,0.17 0 0 0 0,0.24 l 0.7,0.71 a 0.17,0.17 0 0 0 0.24,0 L 3.86,3.62 a 0.17,0.17 0 0 0 0,-0.23 L 3.16,2.68 A 0.16,0.16 0 0 0 3.03,2.63 Z m 6.64,0 A 0.16,0.16 0 0 0 9.55,2.68 l -0.71,0.7 a 0.17,0.17 0 0 0 0,0.24 l 0.24,0.24 a 0.17,0.17 0 0 0 0.23,0 l 0.71,-0.7 a 0.17,0.17 0 0 0 0,-0.25 L 9.79,2.68 A 0.17,0.17 0 0 0 9.67,2.63 Z M 6.35,4 A 2.35,2.35 0 0 0 4,6.35 2.35,2.35 0 0 0 6.35,8.7 2.35,2.35 0 0 0 8.7,6.35 2.35,2.35 0 0 0 6.35,4 Z M 1.49,6.02 c -0.1,0 -0.17,0.07 -0.17,0.16 v 0.34 c 0,0.09 0.08,0.16 0.17,0.16 h 1 c 0.1,0 0.17,-0.07 0.17,-0.16 V 6.18 C 2.66,6.09 2.59,6.02 2.5,6.02 Z m 8.71,0 c -0.09,0 -0.16,0.07 -0.16,0.16 v 0.34 c 0,0.09 0.07,0.16 0.16,0.16 h 1.01 c 0.1,0 0.17,-0.07 0.17,-0.16 V 6.18 c 0,-0.09 -0.08,-0.16 -0.17,-0.16 h -1 z M 3.5,8.79 A 0.17,0.17 0 0 0 3.39,8.84 l -0.71,0.7 a 0.17,0.17 0 0 0 0,0.25 l 0.23,0.23 a 0.17,0.17 0 0 0 0.24,0 l 0.71,-0.7 a 0.17,0.17 0 0 0 0,-0.24 L 3.62,8.84 A 0.17,0.17 0 0 0 3.51,8.79 Z m 5.7,0 A 0.17,0.17 0 0 0 9.08,8.84 L 8.84,9.08 a 0.17,0.17 0 0 0 0,0.23 l 0.71,0.71 a 0.17,0.17 0 0 0 0.24,0 l 0.23,-0.23 a 0.17,0.17 0 0 0 0,-0.24 L 9.32,8.84 A 0.17,0.17 0 0 0 9.19,8.79 Z m -3.02,1.25 c -0.09,0 -0.16,0.07 -0.16,0.16 v 1.01 c 0,0.1 0.07,0.17 0.16,0.17 h 0.34 c 0.09,0 0.16,-0.08 0.16,-0.17 v -1 c 0,-0.1 -0.07,-0.17 -0.16,-0.17 z"
     id="path2"
     style="fill:#ffdd55;fill-opacity:0.29803922"
     inkscape:connector-curvature="0" />
</svg>
